src/pos-icons/rss-box.svg

<svg height="24" viewBox="0 0 24 24" width="24" xmlns="http://www.w3.org/2000/svg"><path d="m5 3h14a2 2 0 0 1 2 2v14a2 2 0 0 1 -2 2h-14a2 2 0 0 1 -2-2v-14a2 2 0 0 1 2-2m2.5 12a1.5 1.5 0 0 0 -1.5 1.5 1.5 1.5 0 0 0 1.5 1.5 1.5 1.5 0 0 0 1.5-1.5 1.5 1.5 0 0 0 -1.5-1.5m-1.5-5v2a6 6 0 0 1 6 6h2a8 8 0 0 0 -8-8m0-4v2a10 10 0 0 1 10 10h2a12 12 0 0 0 -12-12z"/></svg>

<?xml version="1.0" encoding="UTF-8"?><!DOCTYPE svg PUBLIC "-//W3C//DTD SVG 1.1//EN" "http://www.w3.org/Graphics/SVG/1.1/DTD/svg11.dtd"><svg xmlns="http://www.w3.org/2000/svg" xmlns:xlink="http://www.w3.org/1999/xlink" version="1.1" id="mdi-rss-box" width="24" height="24" viewBox="0 0 24 24"><path d="M5,3H19A2,2 0 0,1 21,5V19A2,2 0 0,1 19,21H5A2,2 0 0,1 3,19V5A2,2 0 0,1 5,3M7.5,15A1.5,1.5 0 0,0 6,16.5A1.5,1.5 0 0,0 7.5,18A1.5,1.5 0 0,0 9,16.5A1.5,1.5 0 0,0 7.5,15M6,10V12A6,6 0 0,1 12,18H14A8,8 0 0,0 6,10M6,6V8A10,10 0 0,1 16,18H18A12,12 0 0,0 6,6Z" /></svg>
